; G-Code generated by Simplify3D(TM) Version 2.1.2
; Dec 11, 2014 at 11:14:57 AM
; Settings Summary
;   processName,BigKosselPLA0.3
;   applyToModels,Christmas_tree
;   printMaterial,
;   printQuality,
;   extruderName,Primary Extruder
;   extruderToolheadNumber,0
;   extruderDiameter,0.4
;   extruderAutoWidth,0
;   extruderWidth,0.4
;   extrusionMultiplier,0.9
;   extruderUseRetract,1
;   extruderRetractionDistance,2
;   extruderExtraRestartDistance,0
;   extruderRetractionZLift,0.1
;   extruderRetractionSpeed,3600
;   extruderUseCoasting,0
;   extruderCoastingDistance,0.2
;   extruderUseWipe,0
;   extruderWipeDistance,5
;   primaryExtruder,0
;   layerHeight,0.3
;   topSolidLayers,5
;   bottomSolidLayers,5
;   perimeterOutlines,3
;   printPerimetersInsideOut,1
;   startPointOption,2
;   startPointOriginX,0
;   startPointOriginY,0
;   startPointOriginZ,300
;   sequentialIslands,0
;   spiralVaseMode,0
;   firstLayerHeightRatio,1
;   firstLayerUnderspeed,0.3
;   useRaft,0
;   raftLayers,3
;   raftOffset,3
;   raftSeparationDistance,0.14
;   raftInfill,85
;   disableRaftBaseLayers,0
;   useSkirt,1
;   skirtLayers,1
;   skirtOutlines,2
;   skirtOffset,2
;   infillExtruder,0
;   externalInfillPattern,Rectilinear
;   infillPercentage,5
;   outlineOverlapPercentage,15
;   minInfillLength,5
;   infillLayerInterval,1
;   randomInfillStartPoint,1
;   infillAngles,45,-45
;   generateSupport,0
;   supportExtruder,0
;   supportInfill,30
;   supportExtraInflation,0
;   supportLayerInterval,1
;   supportHorizontalPartOffset,0.3
;   supportUpperSeparationLayers,1
;   supportLowerSeparationLayers,1
;   supportGridSpacing,4
;   maxOverhangAngle,45
;   supportAngles,0
;   temperatureName,Primary Extruder,Bed
;   temperatureNumber,0,0
;   temperatureSetpointCount,1,2
;   temperatureSetpointLayers,1,1,2
;   temperatureSetpointTemperatures,220,60,70
;   temperatureStabilizeAtStartup,1,1
;   temperatureHeatedBed,0,1
;   temperatureRelayBetweenLayers,0,0
;   temperatureRelayBetweenLoops,0,0
;   fanLayers,1,1
;   fanSpeeds,0,100
;   blipFanToFullPower,0
;   adjustSpeedForCooling,1
;   minSpeedLayerTime,15
;   minCoolingSpeedSlowdown,20
;   increaseFanForCooling,0
;   minFanLayerTime,45
;   maxCoolingFanSpeed,100
;   increaseFanForBridging,0
;   bridgingFanSpeed,100
;   use5D,1
;   relativeEdistances,0
;   allowEaxisZeroing,1
;   includeM10123,0
;   stickySupport,1
;   detectArcs,0
;   arcReplaceG2G3,0
;   arcRadialCompensation,1
;   gcodeXoffset,0
;   gcodeYoffset,0
;   gcodeZoffset,0
;   overrideMachineDefinition,1
;   machineTypeOverride,1
;   strokeXoverride,290
;   strokeYoverride,290
;   strokeZoverride,182
;   originOffsetXoverride,145
;   originOffsetYoverride,145
;   originOffsetZoverride,0
;   homeXdirOverride,0
;   homeYdirOverride,0
;   homeZdirOverride,1
;   flipXoverride,1
;   flipYoverride,1
;   flipZoverride,1
;   startingGcode,G28 ; home all axes,G0 Z50
;   layerChangeGcode,
;   toolChangeGcode,
;   endingGcode,G28;,M104 S0 ; turn off extruder,M140 S0 ; turn off bed,M84 ; disable motors
;   createX3G,0
;   celebration,0
;   celebrationSong,Random Song
;   postProcessing,
;   defaultSpeed,3600
;   outlineUnderspeed,0.5
;   supportUnderspeed,0.8
;   rapidXYspeed,4800
;   rapidZspeed,4800
;   minBridgingArea,50
;   bridgingExtrusionMultiplier,1
;   bridgingSpeedMultiplier,1
;   filamentDiameter,1.75
;   filamentPricePerKg,46
;   useMinPrintHeight,0
;   minPrintHeight,0
;   useMaxPrintHeight,0
;   maxPrintHeight,0.3
;   overlapRemoval,0
;   overlapRemovalPercentage,0.3
;   useDiaphragm,0
;   diaphragmLayerInterval,20
;   robustSlicing,1
;   mergeAllIntoSolid,0
;   onlyRetractWhenCrossingOutline,1
;   retractBetweenLayers,1
;   useRetractionMinTravel,0
;   retractionMinTravel,3
;   useRetractionOozeRate,0
;   retractionOozeRate,100
;   onlyWipeOutlines,1
G90 ; use absolute coordinates
M82 ; absolute extrusion distances
G21 ; set units to millimeters
M106 S0
M140 S60
M190 S60
M104 S220 T0
M109 S220 T0
G28 ; home all axes
G0 Z50
G92 E0
G1 E-2 F3600
G0 Z0.4 F4800
; layer 1, Z = 0.3
T0
; tool H0.3 W0.4
G0 X18.99 Y7.583 F4800
G0 Z0.3 F4800
G1 E0 F1080
G92 E0
G1 X20.277 Y8.07 E0.0618 F1080
G1 X28.094 Y11.616 E0.4472
G1 X16.99 Y14.746 E0.9652
G1 X16.823 Y14.794 E0.973
G1 X19.169 Y16.579 E1.1054
G1 X16.584 Y19.333 E1.275
G1 X14.964 Y20.24 E1.3584
G1 X10.383 Y22.548 E1.5887
G1 X8.983 Y23.346 E1.6611
G1 X8.086 Y23.976 E1.7103
G1 X7.39 Y24.607 E1.7524
G1 X6.945 Y25.105 E1.7824
G1 X7.754 Y27.439 E1.8933
G1 X7.612 Y28.746 E1.9523
G1 X7.444 Y29.859 E2.0029
G1 X7.225 Y31.476 E2.0762
G1 X7.172 Y31.773 E2.0897
G1 X7.356 Y31.987 E2.1024
G1 X9.011 Y33.669 E2.2084
G1 X9.692 Y34.408 E2.2534
G1 X10.34 Y35.204 E2.2996
G1 X11.793 Y38.372 E2.456
G1 X8.608 Y39.414 E2.6065
G1 X7.793 Y39.577 E2.6438
G1 X6.834 Y39.735 E2.6875
G1 X4.445 Y40.055 E2.7957
G1 X3.277 Y42.31 E2.9097
G1 X2.803 Y43.166 E2.9537
G1 X2.371 Y43.886 E2.9914
G1 X0.075 Y46.743 E3.156
G1 X-2.214 Y43.886 E3.3204
G1 X-2.647 Y43.173 E3.3578
G1 X-3.126 Y42.318 E3.4018
G1 X-4.344 Y40.003 E3.5193
G1 X-12.699 Y38.588 E3.8998
G1 X-10.343 Y34.948 E4.0945
G1 X-9.794 Y34.335 E4.1314
G1 X-8.525 Y33.032 E4.2131
G1 X-7.52 Y31.934 E4.2799
G1 X-7.289 Y31.511 E4.3015
G1 X-7.24 Y31.029 E4.3233
G1 X-7.449 Y29.532 E4.3912
G1 X-7.664 Y28.201 E4.4517
G1 X-7.732 Y27.43 E4.4865
G1 X-7.355 Y24.629 E4.6134
G1 X-8.076 Y23.912 E4.659
G1 X-8.939 Y23.26 E4.7076
G1 X-10.382 Y22.433 E4.7823
G1 X-16.202 Y19.482 E5.0753
G1 X-21.264 Y15.342 E5.3689
G1 X-17.901 Y14.391 E5.5258
G1 X-20.181 Y13.739 E5.6323
G1 X-21.181 Y13.438 E5.6792
G1 X-27.757 Y11.199 E5.9911
G1 X-21.052 Y8.109 E6.3226
G1 X-19.23 Y7.522 E6.4085
G1 X-19.112 Y7.488 E6.414
G1 X-24.591 Y4.905 E6.686
G1 X-26.372 Y3.993 E6.7759
G1 X-26.623 Y0.603 E6.9285
G1 X-25.031 Y-0.172 E7.008
G1 X-28.202 Y-0.472 E7.1511
G1 X-29.412 Y-0.606 E7.2057
G1 X-36.542 Y-1.778 E7.5301
G1 X-29.899 Y-6.093 E7.8858
G1 X-27.588 Y-7.365 E8.0043
G1 X-25.199 Y-8.604 E8.1251
G1 X-24.806 Y-8.779 E8.1444
G1 X-27.009 Y-9.09 E8.2443
G1 X-31.713 Y-9.673 E8.4571
G1 X-46.848 Y-11.449 E9.1414
G1 X-34.775 Y-16.518 E9.7293
G1 X-29.45 Y-18.715 E9.988
G1 X-28.498 Y-19.073 E10.0336
G1 X-29.496 Y-19.083 E10.0784
G1 X-33.128 Y-18.968 E10.2416
G1 X-36.363 Y-18.716 E10.3872
G1 X-47.576 Y-17.438 E10.894
G1 X-39.025 Y-23.721 E11.3704
G1 X-38.523 Y-24.123 E11.3993
G1 X-37.566 Y-24.925 E11.4554
G1 X-34.901 Y-27.21 E11.613
G1 X-31.869 Y-29.731 E11.7901
G1 X-29.096 Y-31.783 E11.9449
G1 X-26.475 Y-33.42 E12.0837
G1 X-23.865 Y-34.726 E12.2148
G1 X-19.117 Y-36.39 E12.4406
G1 X-14.35 Y-37.188 E12.6577
G1 X-9.587 Y-37.082 E12.8716
G1 X-6.961 Y-36.528 E12.9921
G1 X-7.065 Y-36.925 E13.0105
G1 X-7.922 Y-39.67 E13.1396
G1 X-8.136 Y-40.409 E13.1741
G1 X-8.313 Y-41.171 E13.2093
G1 X-8.418 Y-43.759 E13.3256
G1 X-5.925 Y-44.345 E13.4405
G1 X-5.051 Y-44.466 E13.4802
G1 X-3.999 Y-44.587 E13.5277
G1 X-1.618 Y-44.826 E13.6352
G1 X-0.688 Y-44.938 E13.6772
G1 X-0.207 Y-45.01 E13.699
G1 X0.333 Y-45.167 E13.7243
G1 X1.032 Y-45.192 E13.7557
G1 X1.575 Y-45.139 E13.7802
G1 X2.354 Y-44.992 E13.8158
G1 X2.891 Y-44.916 E13.8401
G1 X5.172 Y-44.671 E13.9431
G1 X5.88 Y-44.574 E13.9752
G1 X6.614 Y-44.432 E14.0088
G1 X9.126 Y-43.384 E14.131
G1 X7.982 Y-39.277 E14.3225
G1 X7.28 Y-36.915 E14.4331
G1 X8.268 Y-37.106 E14.4783
G1 X9.959 Y-37.36 E14.5551
G1 X14.851 Y-37.416 E14.7747
G1 X20.076 Y-36.419 E15.0136
G1 X25.232 Y-34.487 E15.2608
G1 X29.996 Y-31.734 E15.5079
G1 X32.678 Y-29.703 E15.6589
G1 X35.918 Y-27.09 E15.8458
G1 X38.741 Y-24.704 E16.0118
G1 X42.954 Y-20.62 E16.2752
G1 X38.446 Y-18.979 E16.4907
G1 X37.303 Y-18.932 E16.542
G1 X36.164 Y-18.962 E16.5932
G1 X33.33 Y-19.145 E16.7207
G1 X31.547 Y-19.223 E16.8008
G1 X29.696 Y-19.275 E16.884
G1 X28.798 Y-19.286 E16.9243
G1 X29.449 Y-19.055 E16.9553
G1 X33.366 Y-17.506 E17.1444
G1 X47.225 Y-11.83 E17.8169
G1 X27.599 Y-9.317 E18.7054
G1 X24.777 Y-8.92 E18.8333
G1 X25.043 Y-8.773 E18.8469
G1 X26.234 Y-8.144 E18.9074
G1 X30.173 Y-6.124 E19.1062
G1 X31.034 Y-5.65 E19.1503
G1 X37.072 Y-1.632 E19.476
G1 X29.849 Y-0.624 E19.8035
G1 X28.781 Y-0.521 E19.8516
G1 X25.131 Y-0.22 E20.0161
G1 X28.15 Y1.354 E20.169
G1 X25.479 Y4.345 E20.349
G1 X24.47 Y4.979 E20.4025
G1 X23.398 Y5.545 E20.457
G1 X22.173 Y6.123 E20.5178
G1 X18.99 Y7.583 E20.675
G0 X18.482 Y7.818 F4800
G92 E0
G1 X20.123 Y8.44 E0.0788 F1080
G1 X26.932 Y11.528 E0.4145
G1 X16.88 Y14.361 E0.8834
G1 X15.919 Y14.64 E0.9284
G1 X15.979 Y14.654 E0.9311
G1 X18.574 Y16.629 E1.0775
G1 X16.334 Y19.015 E1.2245
G1 X14.776 Y19.887 E1.3047
G1 X10.194 Y22.195 E1.535
G1 X8.768 Y23.008 E1.6087
G1 X7.835 Y23.663 E1.6599
G1 X7.106 Y24.325 E1.7042
G1 X6.387 Y25.13 E1.7526
G1 X6.527 Y25.12 E1.7589
G1 X7.346 Y27.486 E1.8713
G1 X7.215 Y28.694 E1.9259
G1 X7.048 Y29.802 E1.9762
G1 X6.83 Y31.414 E2.0493
G1 X6.745 Y31.89 E2.071
G1 X7.061 Y32.258 E2.0928
G1 X8.722 Y33.945 E2.1991
G1 X9.389 Y34.67 E2.2433
G1 X9.998 Y35.417 E2.2866
G1 X11.243 Y38.131 E2.4207
G1 X8.506 Y39.027 E2.5499
G1 X7.722 Y39.184 E2.5859
G1 X6.775 Y39.339 E2.6289
G1 X4.186 Y39.686 E2.7462
G1 X2.924 Y42.121 E2.8694
G1 X2.457 Y42.966 E2.9127
G1 X2.042 Y43.656 E2.9489
G1 X0.076 Y46.104 E3.0899
G1 X-1.885 Y43.656 E3.2307
G1 X-2.301 Y42.971 E3.2667
G1 X-2.774 Y42.127 E3.3102
G1 X-4.082 Y39.641 E3.4363
G1 X-12.033 Y38.295 E3.7983
G1 X-10.025 Y35.191 E3.9643
G1 X-9.502 Y34.608 E3.9995
G1 X-8.235 Y33.307 E4.081
G1 X-7.192 Y32.168 E4.1504
G1 X-6.899 Y31.632 E4.1778
G1 X-6.837 Y31.021 E4.2054
G1 X-7.054 Y29.473 E4.2756
G1 X-7.267 Y28.151 E4.3357
G1 X-7.33 Y27.439 E4.3678
G1 X-6.932 Y24.486 E4.5016
G1 X-7.813 Y23.609 E4.5574
G1 X-8.718 Y22.926 E4.6083
G1 X-10.192 Y22.081 E4.6846
G1 X-15.982 Y19.145 E4.9761
G1 X-20.416 Y15.518 E5.2333
G1 X-16.457 Y14.399 E5.4181
G1 X-17.054 Y14.217 E5.4461
G1 X-20.068 Y13.355 E5.5869
G1 X-21.059 Y13.057 E5.6333
G1 X-26.68 Y11.143 E5.9
G1 X-20.907 Y8.483 E6.1854
G1 X-19.115 Y7.905 E6.2699
G1 X-17.974 Y7.583 E6.3232
G1 X-24.415 Y4.546 E6.6429
G1 X-25.99 Y3.739 E6.7224
G1 X-26.204 Y0.844 E6.8527
G1 X-24.245 Y-0.11 E6.9505
G1 X-23.263 Y-0.407 E6.9966
G1 X-28.161 Y-0.869 E7.2176
G1 X-29.358 Y-1.003 E7.2716
G1 X-35.457 Y-2.006 E7.5492
G1 X-29.693 Y-5.75 E7.8578
G1 X-27.399 Y-7.012 E7.9754
G1 X-25.025 Y-8.243 E8.0955
G1 X-23.741 Y-8.814 E8.1586
G1 X-23.704 Y-8.845 E8.1607
G1 X-23.542 Y-9.004 E8.1709
G1 X-26.956 Y-9.487 E8.3257
G1 X-31.665 Y-10.07 E8.5388
G1 X-45.291 Y-11.669 E9.1548
G1 X-34.621 Y-16.149 E9.6744
G1 X-29.303 Y-18.343 E9.9327
G1 X-26.353 Y-19.453 E10.0742
G1 X-29.501 Y-19.483 E10.2156
G1 X-33.15 Y-19.368 E10.3795
G1 X-36.401 Y-19.115 E10.5259
G1 X-46.127 Y-18.005 E10.9655
G1 X-38.781 Y-23.404 E11.3748
G1 X-38.27 Y-23.813 E11.4042
G1 X-37.307 Y-24.62 E11.4606
G1 X-34.643 Y-26.904 E11.6182
G1 X-31.622 Y-29.416 E11.7946
G1 X-28.871 Y-31.452 E11.9483
G1 X-26.279 Y-33.071 E12.0855
G1 X-23.708 Y-34.357 E12.2145
G1 X-19.017 Y-36.002 E12.4377
G1 X-14.321 Y-36.787 E12.6515
G1 X-9.633 Y-36.683 E12.8621
G1 X-6.411 Y-36.004 E13.01
G1 X-6.68 Y-37.036 E13.0579
G1 X-7.539 Y-39.785 E13.1872
G1 X-7.749 Y-40.51 E13.2211
G1 X-7.915 Y-41.225 E13.254
G1 X-8.005 Y-43.445 E13.3538
G1 X-5.852 Y-43.951 E13.4531
G1 X-5.001 Y-44.069 E13.4917
G1 X-3.957 Y-44.189 E13.5389
G1 X-1.574 Y-44.428 E13.6464
G1 X-0.634 Y-44.541 E13.6889
G1 X-0.121 Y-44.619 E13.7122
G1 X0.397 Y-44.769 E13.7364
G1 X1.02 Y-44.791 E13.7644
G1 X1.519 Y-44.742 E13.7869
G1 X2.289 Y-44.597 E13.8221
G1 X2.841 Y-44.519 E13.8471
G1 X5.123 Y-44.274 E13.9502
G1 X5.815 Y-44.179 E13.9815
G1 X6.498 Y-44.047 E14.0128
G1 X8.646 Y-43.151 E14.1173
G1 X7.597 Y-39.388 E14.2927
G1 X6.707 Y-36.389 E14.4332
G1 X6.865 Y-36.427 E14.4404
G1 X8.335 Y-36.712 E14.5077
G1 X9.991 Y-36.96 E14.5829
G1 X14.815 Y-37.015 E14.7995
G1 X19.967 Y-36.033 E15.035
G1 X25.061 Y-34.124 E15.2793
G1 X29.774 Y-31.4 E15.5237
G1 X32.432 Y-29.387 E15.6734
G1 X35.663 Y-26.782 E15.8598
G1 X38.472 Y-24.407 E16.0249
G1 X42.217 Y-20.778 E16.2591
G1 X38.367 Y-19.376 E16.4431
G1 X37.3 Y-19.332 E16.491
G1 X36.183 Y-19.362 E16.5412
G1 X33.351 Y-19.544 E16.6686
G1 X31.562 Y-19.622 E16.749
G1 X29.704 Y-19.675 E16.8325
G1 X28.017 Y-19.695 E16.9082
G1 X26.493 Y-19.678 E16.9767
G1 X29.309 Y-18.68 E17.1108
G1 X33.216 Y-17.135 E17.2995
G1 X45.671 Y-12.035 E17.9038
G1 X27.546 Y-9.714 E18.7243
G1 X23.604 Y-9.159 E18.903
G1 X24.025 Y-8.879 E18.9258
G1 X24.852 Y-8.421 E18.9682
G1 X26.049 Y-7.79 E19.029
G1 X29.985 Y-5.771 E19.2276
G1 X30.826 Y-5.308 E19.2707
G1 X35.974 Y-1.883 E19.5483
G1 X29.802 Y-1.022 E19.8281
G1 X28.745 Y-0.92 E19.8758
G1 X23.627 Y-0.497 E20.1064
G1 X23.404 Y-0.474 E20.1165
G1 X24.452 Y-0.123 E20.1661
G1 X27.509 Y1.471 E20.3209
G1 X25.218 Y4.037 E20.4753
G1 X24.27 Y4.632 E20.5256
G1 X23.219 Y5.187 E20.579
G1 X22.004 Y5.761 E20.6393
G1 X17.915 Y7.635 E20.8413
G1 X18.482 Y7.818 E20.868
G92 E0
G1 E-2 F3600
G0 Z0.4 F4800
G0 X17.49 Y10.864 F4800
G0 Z0.3 F4800
G1 E0 F3600
G92 E0
G1 X16 Y11.285 E0.0695 F900
G1 X12.58 Y12.277 E0.2294
G1 X10.313 Y13.029 E0.3367
G1 X8.824 Y13.694 E0.4099
G1 X7.825 Y14.409 E0.465
G1 X7.2 Y15.042 E0.505
G1 X6.913 Y15.418 E0.5262
G1 X6.508 Y16.77 E0.5896
G1 X7.958 Y17.012 E0.6556
G1 X9.803 Y17.157 E0.7387
G1 X12.312 Y17.317 E0.8516
G1 X12.691 Y17.354 E0.8687
G1 X8.681 Y19.374 E1.0703
G1 X7.053 Y20.302 E1.1544
G1 X5.833 Y21.158 E1.2213
G1 X4.831 Y22.068 E1.2821
G1 X3.529 Y23.525 E1.3699
G1 X2.358 Y25.066 E1.4568
G1 X1.467 Y26.476 E1.5316
G1 X0.957 Y27.828 E1.5965
G1 X1.56 Y28.938 E1.6533
G1 X2.638 Y29.2 E1.7031
G1 X3.593 Y29.052 E1.7465
G1 X3.948 Y28.899 E1.7638
G1 X3.88 Y29.348 E1.7842
G1 X3.668 Y30.918 E1.8553
G1 X3.579 Y31.417 E1.8781
G1 X3.557 Y30.673 E1.9115
G1 X3.016 Y29.862 E1.9553
G1 X2.159 Y29.741 E1.9941
G1 X1.692 Y29.805 E2.0153
G1 X1.27 Y29.922 E2.035
G1 X0.846 Y30.079 E2.0553
G1 X0.176 Y30.389 E2.0884
G1 X0.077 Y30.409 E2.093
G1 X-0.059 Y30.396 E2.0991
G1 X-1.308 Y30.011 E2.1578
G1 X-2.41 Y30.242 E2.2083
G1 X-2.908 Y31.231 E2.2581
G1 X-3.181 Y32.706 E2.3254
G1 X-3.282 Y32.953 E2.3374
G1 X-3.415 Y33.134 E2.3475
G1 X-4.495 Y34.039 E2.4107
G1 X-5.039 Y35.34 E2.4741
G1 X-3.892 Y36.162 E2.5374
G1 X-2.339 Y36.489 E2.6087
G1 X-2.147 Y36.576 E2.6181
G1 X-2.012 Y36.708 E2.6266
G1 X-1.159 Y38.065 E2.6986
G1 X-0.108 Y38.834 E2.7571
G1 X1.053 Y38.221 E2.816
G1 X1.596 Y37.303 E2.8639
G1 X1.825 Y36.875 E2.8857
G1 X1.831 Y36.869 E2.8861
G1 X1.953 Y36.838 E2.8917
G1 X2.058 Y36.835 E2.8965
G1 X0.103 Y40.61 E3.0873
G1 X0.074 Y40.664 E3.0901
G1 X0.038 Y40.6 E3.0934
G1 X-1.987 Y36.751 E3.2887
G1 X-6.395 Y36.004 E3.4894
G1 X-5.908 Y35.505 E3.5207
G1 X-4.569 Y34.043 E3.6097
G1 X-3.78 Y32.598 E3.6836
G1 X-3.615 Y30.96 E3.7575
G1 X-3.888 Y29.006 E3.8461
G1 X-3.363 Y29.241 E3.872
G1 X-2.47 Y29.474 E3.9134
G1 X-1.355 Y29.317 E3.964
G1 X-0.821 Y28.185 E4.0201
G1 X-1.291 Y26.841 E4.0841
G1 X-2.149 Y25.403 E4.1593
G1 X-3.29 Y23.826 E4.2467
G1 X-4.572 Y22.319 E4.3355
G1 X-5.71 Y21.187 E4.4076
G1 X-6.951 Y20.25 E4.4774
G1 X-8.672 Y19.264 E4.5665
G1 X-12.876 Y17.132 E4.7781
G1 X-10.066 Y17.065 E4.9044
G1 X-9.552 Y17.037 E4.9275
G1 X-5.525 Y20.908 E5.1783
G1 X-3.991 Y22.462 E5.2763
G1 X-2.682 Y23.935 E5.3648
G1 X-1.74 Y25.151 E5.4339
G1 X-0.599 Y27.155 E5.5374
G1 X0.76 Y26.465 E5.6059
G1 X1.593 Y25.408 E5.6663
G1 X2.87 Y23.606 E5.7655
G1 X3.36 Y22.981 E5.8011
G1 X4.011 Y22.255 E5.8449
G1 X4.738 Y21.519 E5.8914
G1 X6.187 Y20.212 E5.979
G1 X6.741 Y19.636 E6.0149
G1 X7.256 Y18.881 E6.0559
G1 X6.98 Y17.538 E6.1174
G1 X5.475 Y17.478 E6.1851
G1 X4.353 Y17.67 E6.2362
G1 X4.014 Y17.766 E6.252
G1 X4.43 Y17.084 E6.2879
G1 X5.836 Y15.456 E6.3845
G1 X7.49 Y14.105 E6.4804
G1 X9.456 Y12.987 E6.582
G1 X11.14 Y12.167 E6.6661
G1 X11.704 Y11.864 E6.6948
G1 X13.86 Y10.396 E6.8119
G1 X11.33 Y9.853 E6.9281
G1 X10.772 Y9.831 E6.9532
G1 X9.257 Y9.852 E7.0212
G1 X8.119 Y9.93 E7.0724
G1 X7.124 Y10.095 E7.1177
G1 X6.616 Y10.251 E7.1415
G1 X6.865 Y9.955 E7.1589
G1 X7.983 Y8.844 E7.2297
G1 X8.642 Y8.319 E7.2675
G1 X9.503 Y7.72 E7.3146
G1 X10.431 Y7.139 E7.3637
G1 X11.344 Y6.636 E7.4106
G1 X12.888 Y5.819 E7.489
G1 X13.451 Y5.493 E7.5182
G1 X13.792 Y5.271 E7.5365
G1 X13.849 Y5.251 E7.5392
G1 X14.009 Y5.22 E7.5465
G1 X14.333 Y5.195 E7.5611
G1 X15.252 Y4.97 E7.6036
G1 X16.195 Y4.47 E7.6515
