M300
M206 X500
M107
M104 S220
G92 E
M642 W1
M130 T6 U1.3 V80
G1 X-98.0 Y-20.0 Z5.0 F3000
G1 Y-68.0 Z0.3
G1 X-98.0 Y0.0 F500 E20
G92 E
;Generated with Cura_SteamEngine DEV
;startCode
;Layer count: 83
;LAYER:0
M107
G0 F6000 X11.60 Y11.60 Z0.30
;TYPE:WALL-INNER
G1 F900 X-11.60 Y11.60 E1.57992
G1 X-11.60 Y-11.60 E3.15985
G1 X11.60 Y-11.60 E4.73977
G1 X11.60 Y11.60 E6.31969
G0 F6000 X12.20 Y12.20
;TYPE:WALL-OUTER
G1 F900 X-12.20 Y12.20 E7.98133
G1 X-12.20 Y-12.20 E9.64298
G1 X12.20 Y-12.20 E11.30462
G1 X12.20 Y12.20 E12.96626
G0 F6000 X10.96 Y11.39
;TYPE:FILL
G1 F900 X-11.39 Y-10.96 E15.11914
G0 F6000 X-10.96 Y-11.39
G1 F900 X11.39 Y10.96 E17.27201
G0 F6000 X11.39 Y10.12
G1 F900 X-10.12 Y-11.39 E19.34311
G0 F6000 X-9.27 Y-11.39
G1 F900 X11.39 Y9.27 E21.33255
G0 F6000 X11.39 Y8.42
G1 F900 X-8.42 Y-11.39 E23.24022
G0 F6000 X-7.57 Y-11.39
G1 F900 X11.39 Y7.57 E25.06613
G0 F6000 X11.39 Y6.72
G1 F900 X-6.72 Y-11.39 E26.81036
G0 F6000 X-5.87 Y-11.39
G1 F900 X11.39 Y5.87 E28.47283
G0 F6000 X11.39 Y5.03
G1 F900 X-5.03 Y-11.39 E30.05364
G0 F6000 X-4.18 Y-11.39
G1 F900 X11.39 Y4.18 E31.55267
G0 F6000 X11.39 Y3.33
G1 F900 X-3.33 Y-11.39 E32.97004
G0 F6000 X-2.48 Y-11.39
G1 F900 X11.39 Y2.48 E34.30564
G0 F6000 X11.39 Y1.63
G1 F900 X-1.63 Y-11.39 E35.55957
G0 F6000 X-0.78 Y-11.39
G1 F900 X11.39 Y0.78 E36.73174
G0 F6000 X11.39 Y-0.07
G1 F900 X0.07 Y-11.39 E37.82233
G0 F6000 X0.91 Y-11.39
G1 F900 X11.39 Y-0.91 E38.83116
G0 F6000 X11.39 Y-1.76
G1 F900 X1.76 Y-11.39 E39.75832
G0 F6000 X2.61 Y-11.39
G1 F900 X11.39 Y-2.61 E40.60371
G0 F6000 X11.39 Y-3.46
G1 F900 X3.46 Y-11.39 E41.36743
G0 F6000 X4.31 Y-11.39
G1 F900 X11.39 Y-4.31 E42.04939
G0 F6000 X11.39 Y-5.16
G1 F900 X5.16 Y-11.39 E42.64968
G0 F6000 X6.00 Y-11.39
G1 F900 X11.39 Y-6.00 E43.16820
G0 F6000 X11.39 Y-6.85
G1 F900 X6.85 Y-11.39 E43.60506
G0 F6000 X7.70 Y-11.39
G1 F900 X11.39 Y-7.70 E43.96014
G0 F6000 X11.39 Y-8.55
G1 F900 X8.55 Y-11.39 E44.23347
G0 F6000 X9.40 Y-11.39
G1 F900 X11.39 Y-9.40 E44.42512
G0 F6000 X11.39 Y-10.25
G1 F900 X10.25 Y-11.39 E44.53501
G0 F6000 X11.10 Y-11.39
G1 F900 X11.39 Y-11.10 E44.56323
G0 F6000 X10.12 Y11.39
G1 F900 X-11.39 Y-10.12 E46.63433
G0 F6000 X-11.39 Y-9.27
G1 F900 X9.27 Y11.39 E48.62377
G0 F6000 X8.42 Y11.39
G1 F900 X-11.39 Y-8.42 E50.53144
G0 F6000 X-11.39 Y-7.57
G1 F900 X7.57 Y11.39 E52.35735
G0 F6000 X6.72 Y11.39
G1 F900 X-11.39 Y-6.72 E54.10158
G0 F6000 X-11.39 Y-5.87
G1 F900 X5.87 Y11.39 E55.76405
G0 F6000 X5.03 Y11.39
G1 F900 X-11.39 Y-5.03 E57.34485
G0 F6000 X-11.39 Y-4.18
G1 F900 X4.18 Y11.39 E58.84389
G0 F6000 X3.33 Y11.39
G1 F900 X-11.39 Y-3.33 E60.26126
G0 F6000 X-11.39 Y-2.48
G1 F900 X2.48 Y11.39 E61.59686
G0 F6000 X1.63 Y11.39
G1 F900 X-11.39 Y-1.63 E62.85079
G0 F6000 X-11.39 Y-0.78
G1 F900 X0.78 Y11.39 E64.02296
G0 F6000 X-0.07 Y11.39
G1 F900 X-11.39 Y0.07 E65.11355
G0 F6000 X-11.39 Y0.91
G1 F900 X-0.91 Y11.39 E66.12238
G0 F6000 X-1.76 Y11.39
G1 F900 X-11.39 Y1.76 E67.04953
G0 F6000 X-11.39 Y2.61
G1 F900 X-2.61 Y11.39 E67.89493
G0 F6000 X-3.46 Y11.39
G1 F900 X-11.39 Y3.46 E68.65865
G0 F6000 X-11.39 Y4.31
G1 F900 X-4.31 Y11.39 E69.34061
G0 F6000 X-5.16 Y11.39
G1 F900 X-11.39 Y5.16 E69.94090
G0 F6000 X-11.39 Y6.00
G1 F900 X-6.00 Y11.39 E70.45942
G0 F6000 X-6.85 Y11.39
G1 F900 X-11.39 Y6.85 E70.89627
G0 F6000 X-11.39 Y7.70
G1 F900 X-7.70 Y11.39 E71.25136
G0 F6000 X-8.55 Y11.39
G1 F900 X-11.39 Y8.55 E71.52468
G0 F6000 X-11.39 Y9.40
G1 F900 X-9.40 Y11.39 E71.71634
G0 F6000 X-10.25 Y11.39
G1 F900 X-11.39 Y10.25 E71.82623
G0 F6000 X-11.39 Y11.10
G1 F900 X-11.10 Y11.39 E71.85444
;LAYER:1
M106 S255
G0 F6000 X-11.75 Y11.75 Z0.60
;TYPE:WALL-INNER
G1 F1560 X-11.75 Y-11.75 E73.18807
G1 X11.75 Y-11.75 E74.52170
G1 X11.75 Y11.75 E75.85533
G1 X-11.75 Y11.75 E77.18895
G0 F6000 X-12.25 Y12.25
;TYPE:WALL-OUTER
G1 F1560 X-12.25 Y-12.25 E78.57933
G1 X12.25 Y-12.25 E79.96971
G1 X12.25 Y12.25 E81.36009
G1 X-12.25 Y12.25 E82.75046
G0 F6000 X-11.22 Y11.57
;TYPE:FILL
G1 F1560 X11.57 Y-11.22 E84.57992
G0 F6000 X11.22 Y-11.57
G1 F1560 X-11.57 Y11.22 E86.40937
G0 F6000 X-11.57 Y10.51
G1 F1560 X10.51 Y-11.57 E88.18200
G0 F6000 X9.81 Y-11.57
G1 F1560 X-11.57 Y9.81 E89.89789
G0 F6000 X-11.57 Y9.10
G1 F1560 X9.10 Y-11.57 E91.55704
G0 F6000 X8.39 Y-11.57
G1 F1560 X-11.57 Y8.39 E93.15945
G0 F6000 X-11.57 Y7.68
G1 F1560 X7.68 Y-11.57 E94.70511
G0 F6000 X6.98 Y-11.57
G1 F1560 X-11.57 Y6.98 E96.19403
G0 F6000 X-11.57 Y6.27
G1 F1560 X6.27 Y-11.57 E97.62622
G0 F6000 X5.56 Y-11.57
G1 F1560 X-11.57 Y5.56 E99.00166
G0 F6000 X-11.57 Y4.86
G1 F1560 X4.86 Y-11.57 E100.32036
G0 F6000 X4.15 Y-11.57
G1 F1560 X-11.57 Y4.15 E101.58231
G0 F6000 X-11.57 Y3.44
G1 F1560 X3.44 Y-11.57 E102.78745
G0 F6000 X2.73 Y-11.57
G1 F1560 X-11.57 Y2.73 E103.93584
G0 F6000 X-11.57 Y2.03
G1 F1560 X2.03 Y-11.57 E105.02750
G0 F6000 X1.32 Y-11.57
G1 F1560 X-11.57 Y1.32 E106.06241
G0 F6000 X-11.57 Y0.61
G1 F1560 X0.61 Y-11.57 E107.04058
G0 F6000 X-0.09 Y-11.57
G1 F1560 X-11.57 Y-0.09 E107.96208
G0 F6000 X-11.57 Y-0.80
G1 F1560 X-0.80 Y-11.57 E108.82685
G0 F6000 X-1.51 Y-11.57
G1 F1560 X-11.57 Y-1.51 E109.63488
G0 F6000 X-11.57 Y-2.21
G1 F1560 X-2.21 Y-11.57 E110.38616
G0 F6000 X-2.92 Y-11.57
G1 F1560 X-11.57 Y-2.92 E111.08062
G0 F6000 X-11.57 Y-3.63
G1 F1560 X-3.63 Y-11.57 E111.71834
G0 F6000 X-4.33 Y-11.57
G1 F1560 X-11.57 Y-4.33 E112.29932
G0 F6000 X-11.57 Y-5.04
G1 F1560 X-5.04 Y-11.57 E112.82356
G0 F6000 X-5.75 Y-11.57
G1 F1560 X-11.57 Y-5.75 E113.29105
G0 F6000 X-11.57 Y-6.46
G1 F1560 X-6.46 Y-11.57 E113.70181
G0 F6000 X-7.16 Y-11.57
G1 F1560 X-11.57 Y-7.16 E114.05582
G0 F6000 X-11.57 Y-7.87
G1 F1560 X-7.87 Y-11.57 E114.35309
G0 F6000 X-8.58 Y-11.57
G1 F1560 X-11.57 Y-8.58 E114.59362
G0 F6000 X-11.57 Y-9.29
G1 F1560 X-9.29 Y-11.57 E114.77733
G0 F6000 X-9.99 Y-11.57
G1 F1560 X-11.57 Y-9.99 E114.90429
G0 F6000 X-11.57 Y-10.70
G1 F1560 X-10.70 Y-11.57 E114.97452
G0 F6000 X-11.41 Y-11.57
G1 F1560 X-11.57 Y-11.41 E114.98800
G0 F6000 X-10.51 Y11.57
G1 F1560 X11.57 Y-10.51 E116.76063
G0 F6000 X11.57 Y-9.81
G1 F1560 X-9.81 Y11.57 E118.47652
G0 F6000 X-9.10 Y11.57
G1 F1560 X11.57 Y-9.10 E120.13567
G0 F6000 X11.57 Y-8.39
G1 F1560 X-8.39 Y11.57 E121.73808
G0 F6000 X-7.68 Y11.57
G1 F1560 X11.57 Y-7.68 E123.28374
G0 F6000 X11.57 Y-6.98
G1 F1560 X-6.98 Y11.57 E124.77267
G0 F6000 X-6.27 Y11.57
G1 F1560 X11.57 Y-6.27 E126.20485
G0 F6000 X11.57 Y-5.56
G1 F1560 X-5.56 Y11.57 E127.58029
G0 F6000 X-4.86 Y11.57
G1 F1560 X11.57 Y-4.86 E128.89899
G0 F6000 X11.57 Y-4.15
G1 F1560 X-4.15 Y11.57 E130.16095
G0 F6000 X-3.44 Y11.57
G1 F1560 X11.57 Y-3.44 E131.36608
G0 F6000 X11.57 Y-2.73
G1 F1560 X-2.73 Y11.57 E132.51448
G0 F6000 X-2.03 Y11.57
G1 F1560 X11.57 Y-2.03 E133.60613
G0 F6000 X11.57 Y-1.32
G1 F1560 X-1.32 Y11.57 E134.64104
G0 F6000 X-0.61 Y11.57
G1 F1560 X11.57 Y-0.61 E135.61921
G0 F6000 X11.57 Y0.09
G1 F1560 X0.09 Y11.57 E136.54072
G0 F6000 X0.80 Y11.57
G1 F1560 X11.57 Y0.80 E137.40548
G0 F6000 X11.57 Y1.51
G1 F1560 X1.51 Y11.57 E138.21351
G0 F6000 X2.21 Y11.57
G1 F1560 X11.57 Y2.21 E138.96479
G0 F6000 X11.57 Y2.92
G1 F1560 X2.92 Y11.57 E139.65925
G0 F6000 X3.63 Y11.57
G1 F1560 X11.57 Y3.63 E140.29697
G0 F6000 X11.57 Y4.33
G1 F1560 X4.33 Y11.57 E140.87795
G0 F6000 X5.04 Y11.57
G1 F1560 X11.57 Y5.04 E141.40219
G0 F6000 X11.57 Y5.75
G1 F1560 X5.75 Y11.57 E141.86969
G0 F6000 X6.46 Y11.57
G1 F1560 X11.57 Y6.46 E142.28044
G0 F6000 X11.57 Y7.16
G1 F1560 X7.16 Y11.57 E142.63445
G0 F6000 X7.87 Y11.57
G1 F1560 X11.57 Y7.87 E142.93172
G0 F6000 X11.57 Y8.58
G1 F1560 X8.58 Y11.57 E143.17225
G0 F6000 X9.29 Y11.57
G1 F1560 X11.57 Y9.29 E143.35596
G0 F6000 X11.57 Y9.99
G1 F1560 X9.99 Y11.57 E143.48293
G0 F6000 X10.70 Y11.57
G1 F1560 X11.57 Y10.70 E143.55315
G0 F6000 X11.57 Y11.41
G1 F1560 X11.41 Y11.57 E143.56664
;LAYER:2
G0 F6000 X11.75 Y11.75 Z0.90
;TYPE:WALL-INNER
G1 F2220 X-11.75 Y11.75 E144.90026
G1 X-11.75 Y-11.75 E146.23389
G1 X11.75 Y-11.75 E147.56752
G1 X11.75 Y11.75 E148.90115
G0 F6000 X12.25 Y12.25
;TYPE:WALL-OUTER
G1 F2220 X-12.25 Y12.25 E150.29152
G1 X-12.25 Y-12.25 E151.68190
G1 X12.25 Y-12.25 E153.07228
G1 X12.25 Y12.25 E154.46266
G0 F6000 X11.22 Y11.57
;TYPE:FILL
G1 F2220 X-11.57 Y-11.22 E156.29211
G0 F6000 X-11.22 Y-11.57
G1 F2220 X11.57 Y11.22 E158.12156
G0 F6000 X11.57 Y10.51
G1 F2220 X-10.51 Y-11.57 E159.89419
G0 F6000 X-9.81 Y-11.57
G1 F2220 X11.57 Y9.81 E161.61008
G0 F6000 X11.57 Y9.10
G1 F2220 X-9.10 Y-11.57 E163.26923
G0 F6000 X-8.39 Y-11.57
G1 F2220 X11.57 Y8.39 E164.87164
G0 F6000 X11.57 Y7.68
G1 F2220 X-7.68 Y-11.57 E166.41730
G0 F6000 X-6.98 Y-11.57
G1 F2220 X11.57 Y6.98 E167.90623
G0 F6000 X11.57 Y6.27
G1 F2220 X-6.27 Y-11.57 E169.33841
G0 F6000 X-5.56 Y-11.57
G1 F2220 X11.57 Y5.56 E170.71385
G0 F6000 X11.57 Y4.86
G1 F2220 X-4.86 Y-11.57 E172.03255
G0 F6000 X-4.15 Y-11.57
G1 F2220 X11.57 Y4.15 E173.29451
G0 F6000 X11.57 Y3.44
G1 F2220 X-3.44 Y-11.57 E174.49964
G0 F6000 X-2.73 Y-11.57
G1 F2220 X11.57 Y2.73 E175.64803
G0 F6000 X11.57 Y2.03
G1 F2220 X-2.03 Y-11.57 E176.73969
G0 F6000 X-1.32 Y-11.57
G1 F2220 X11.57 Y1.32 E177.77460
G0 F6000 X11.57 Y0.61
G1 F2220 X-0.61 Y-11.57 E178.75277
G0 F6000 X0.09 Y-11.57
G1 F2220 X11.57 Y-0.09 E179.67428
G0 F6000 X11.57 Y-0.80
G1 F2220 X0.80 Y-11.57 E180.53904
G0 F6000 X1.51 Y-11.57
G1 F2220 X11.57 Y-1.51 E181.34707
G0 F6000 X11.57 Y-2.21
G1 F2220 X2.21 Y-11.57 E182.09835
G0 F6000 X2.92 Y-11.57
G1 F2220 X11.57 Y-2.92 E182.79281
G0 F6000 X11.57 Y-3.63
G1 F2220 X3.63 Y-11.57 E183.43053
G0 F6000 X4.33 Y-11.57
G1 F2220 X11.57 Y-4.33 E184.01151
G0 F6000 X11.57 Y-5.04
G1 F2220 X5.04 Y-11.57 E184.53575
G0 F6000 X5.75 Y-11.57
G1 F2220 X11.57 Y-5.75 E185.00325
G0 F6000 X11.57 Y-6.46
G1 F2220 X6.46 Y-11.57 E185.41400
G0 F6000 X7.16 Y-11.57
G1 F2220 X11.57 Y-7.16 E185.76801
G0 F6000 X11.57 Y-7.87
G1 F2220 X7.87 Y-11.57 E186.06528
G0 F6000 X8.58 Y-11.57
G1 F2220 X11.57 Y-8.58 E186.30581
G0 F6000 X11.57 Y-9.29
G1 F2220 X9.29 Y-11.57 E186.48952
G0 F6000 X9.99 Y-11.57
G1 F2220 X11.57 Y-9.99 E186.61649
G0 F6000 X11.57 Y-10.70
G1 F2220 X10.70 Y-11.57 E186.68671
G0 F6000 X11.41 Y-11.57
G1 F2220 X11.57 Y-11.41 E186.70019
G0 F6000 X10.51 Y11.57
G1 F2220 X-11.57 Y-10.51 E188.47283
G0 F6000 X-11.57 Y-9.81
G1 F2220 X9.81 Y11.57 E190.18872
G0 F6000 X9.10 Y11.57
G1 F2220 X-11.57 Y-9.10 E191.84786
G0 F6000 X-11.57 Y-8.39
G1 F2220 X8.39 Y11.57 E193.45027
G0 F6000 X7.68 Y11.57
G1 F2220 X-11.57 Y-7.68 E194.99594
G0 F6000 X-11.57 Y-6.98
G1 F2220 X6.98 Y11.57 E196.48486
G0 F6000 X6.27 Y11.57
G1 F2220 X-11.57 Y-6.27 E197.91704
G0 F6000 X-11.57 Y-5.56
G1 F2220 X5.56 Y11.57 E199.29248
G0 F6000 X4.86 Y11.57
G1 F2220 X-11.57 Y-4.86 E200.61118
G0 F6000 X-11.57 Y-4.15
G1 F2220 X4.15 Y11.57 E201.87314
G0 F6000 X3.44 Y11.57
G1 F2220 X-11.57 Y-3.44 E203.07827
G0 F6000 X-11.57 Y-2.73
G1 F2220 X2.73 Y11.57 E204.22667
G0 F6000 X2.03 Y11.57
G1 F2220 X-11.57 Y-2.03 E205.31832
G0 F6000 X-11.57 Y-1.32
G1 F2220 X1.32 Y11.57 E206.35323
G0 F6000 X0.61 Y11.57
G1 F2220 X-11.57 Y-0.61 E207.33140
G0 F6000 X-11.57 Y0.09
G1 F2220 X-0.09 Y11.57 E208.25291
G0 F6000 X-0.80 Y11.57
G1 F2220 X-11.57 Y0.80 E209.11768
G0 F6000 X-11.57 Y1.51
G1 F2220 X-1.51 Y11.57 E209.92570
G0 F6000 X-2.21 Y11.57
G1 F2220 X-11.57 Y2.21 E210.67698
G0 F6000 X-11.57 Y2.92
G1 F2220 X-2.92 Y11.57 E211.37145
G0 F6000 X-3.63 Y11.57
G1 F2220 X-11.57 Y3.63 E212.00917
G0 F6000 X-11.57 Y4.33
G1 F2220 X-4.33 Y11.57 E212.59015
G0 F6000 X-5.04 Y11.57
G1 F2220 X-11.57 Y5.04 E213.11438
G0 F6000 X-11.57 Y5.75
G1 F2220 X-5.75 Y11.57 E213.58188
G0 F6000 X-6.46 Y11.57
G1 F2220 X-11.57 Y6.46 E213.99263
G0 F6000 X-11.57 Y7.16
G1 F2220 X-7.16 Y11.57 E214.34664
G0 F6000 X-7.87 Y11.57
G1 F2220 X-11.57 Y7.87 E214.64392
G0 F6000 X-11.57 Y8.58
G1 F2220 X-8.58 Y11.57 E214.88445
G0 F6000 X-9.29 Y11.57
G1 F2220 X-11.57 Y9.29 E215.06815
G0 F6000 X-11.57 Y9.99
G1 F2220 X-9.99 Y11.57 E215.19512
G0 F6000 X-10.70 Y11.57
G1 F2220 X-11.57 Y10.70 E215.26534
G0 F6000 X-11.57 Y11.41
G1 F2220 X-11.41 Y11.57 E215.27883
;LAYER:3
G0 F6000 X-11.75 Y11.75 Z1.20
;TYPE:WALL-INNER
G1 F2880 X-11.75 Y-11.75 E216.61245
G1 X11.75 Y-11.75 E217.94608
G1 X11.75 Y11.75 E219.27971
G1 X-11.75 Y11.75 E220.61334
G0 F6000 X-12.25 Y12.25
;TYPE:WALL-OUTER
G1 F2880 X-12.25 Y-12.25 E222.00371
G1 X12.25 Y-12.25 E223.39409
G1 X12.25 Y12.25 E224.78447
G1 X-12.25 Y12.25 E226.17485
G0 F6000 X-11.22 Y11.57
;TYPE:FILL
G1 F2880 X11.57 Y-11.22 E228.00430
G0 F6000 X11.22 Y-11.57
G1 F2880 X-11.57 Y11.22 E229.83375
G0 F6000 X-11.57 Y10.51
G1 F2880 X10.51 Y-11.57 E231.60638
G0 F6000 X9.81 Y-11.57
G1 F2880 X-11.57 Y9.81 E233.32227
G0 F6000 X-11.57 Y9.10
G1 F2880 X9.10 Y-11.57 E234.98142
G0 F6000 X8.39 Y-11.57
G1 F2880 X-11.57 Y8.39 E236.58383
G0 F6000 X-11.57 Y7.68
G1 F2880 X7.68 Y-11.57 E238.12949
G0 F6000 X6.98 Y-11.57
G1 F2880 X-11.57 Y6.98 E239.61842
G0 F6000 X-11.57 Y6.27
G1 F2880 X6.27 Y-11.57 E241.05060
G0 F6000 X5.56 Y-11.57
G1 F2880 X-11.57 Y5.56 E242.42604
G0 F6000 X-11.57 Y4.86
G1 F2880 X4.86 Y-11.57 E243.74474
G0 F6000 X4.15 Y-11.57
G1 F2880 X-11.57 Y4.15 E245.00670
G0 F6000 X-11.57 Y3.44
G1 F2880 X3.44 Y-11.57 E246.21183
G0 F6000 X2.73 Y-11.57
G1 F2880 X-11.57 Y2.73 E247.36023
G0 F6000 X-11.57 Y2.03
G1 F2880 X2.03 Y-11.57 E248.45188
G0 F6000 X1.32 Y-11.57
G1 F2880 X-11.57 Y1.32 E249.48679
G0 F6000 X-11.57 Y0.61
G1 F2880 X0.61 Y-11.57 E250.46496
G0 F6000 X-0.09 Y-11.57
G1 F2880 X-11.57 Y-0.09 E251.38647
G0 F6000 X-11.57 Y-0.80
G1 F2880 X-0.80 Y-11.57 E252.25123
G0 F6000 X-1.51 Y-11.57
G1 F2880 X-11.57 Y-1.51 E253.05926
G0 F6000 X-11.57 Y-2.21
G1 F2880 X-2.21 Y-11.57 E253.81054
G0 F6000 X-2.92 Y-11.57
G1 F2880 X-11.57 Y-2.92 E254.50501
G0 F6000 X-11.57 Y-3.63
G1 F2880 X-3.63 Y-11.57 E255.14273
G0 F6000 X-4.33 Y-11.57
G1 F2880 X-11.57 Y-4.33 E255.72370
G0 F6000 X-11.57 Y-5.04
G1 F2880 X-5.04 Y-11.57 E256.24794
G0 F6000 X-5.75 Y-11.57
G1 F2880 X-11.57 Y-5.75 E256.71544
G0 F6000 X-11.57 Y-6.46
G1 F2880 X-6.46 Y-11.57 E257.12619
G0 F6000 X-7.16 Y-11.57
G1 F2880 X-11.57 Y-7.16 E257.48020
G0 F6000 X-11.57 Y-7.87
G1 F2880 X-7.87 Y-11.57 E257.77748
G0 F6000 X-8.58 Y-11.57
G1 F2880 X-11.57 Y-8.58 E258.01800
G0 F6000 X-11.57 Y-9.29
G1 F2880 X-9.29 Y-11.57 E258.20171
G0 F6000 X-9.99 Y-11.57
G1 F2880 X-11.57 Y-9.99 E258.32868
G0 F6000 X-11.57 Y-10.70
G1 F2880 X-10.70 Y-11.57 E258.39890
G0 F6000 X-11.41 Y-11.57
G1 F2880 X-11.57 Y-11.41 E258.41239
G0 F6000 X-10.51 Y11.57
G1 F2880 X11.57 Y-10.51 E260.18502
G0 F6000 X11.57 Y-9.81
G1 F2880 X-9.81 Y11.57 E261.90091
G0 F6000 X-9.10 Y11.57
G1 F2880 X11.57 Y-9.10 E263.56006
G0 F6000 X11.57 Y-8.39
G1 F2880 X-8.39 Y11.57 E265.16246
G0 F6000 X-7.68 Y11.57
G1 F2880 X11.57 Y-7.68 E266.70813
G0 F6000 X11.57 Y-6.98
G1 F2880 X-6.98 Y11.57 E268.19705
G0 F6000 X-6.27 Y11.57
G1 F2880 X11.57 Y-6.27 E269.62923
G0 F6000 X11.57 Y-5.56
G1 F2880 X-5.56 Y11.57 E271.00467
G0 F6000 X-4.86 Y11.57
G1 F2880 X11.57 Y-4.86 E272.32337
G0 F6000 X11.57 Y-4.15
G1 F2880 X-4.15 Y11.57 E273.58533
G0 F6000 X-3.44 Y11.57
G1 F2880 X11.57 Y-3.44 E274.79047
G0 F6000 X11.57 Y-2.73
G1 F2880 X-2.73 Y11.57 E275.93886
G0 F6000 X-2.03 Y11.57
G1 F2880 X11.57 Y-2.03 E277.03051
G0 F6000 X11.57 Y-1.32
G1 F2880 X-1.32 Y11.57 E278.06542
G0 F6000 X-0.61 Y11.57
G1 F2880 X11.57 Y-0.61 E279.04359
G0 F6000 X11.57 Y0.09
G1 F2880 X0.09 Y11.57 E279.96510
G0 F6000 X0.80 Y11.57
G1 F2880 X11.57 Y0.80 E280.82987
G0 F6000 X11.57 Y1.51
G1 F2880 X1.51 Y11.57 E281.63789
G0 F6000 X2.21 Y11.57
G1 F2880 X11.57 Y2.21 E282.38918
G0 F6000 X11.57 Y2.92
G1 F2880 X2.92 Y11.57 E283.08364
G0 F6000 X3.63 Y11.57
G1 F2880 X11.57 Y3.63 E283.72136
G0 F6000 X11.57 Y4.33
G1 F2880 X4.33 Y11.57 E284.30234
G0 F6000 X5.04 Y11.57
G1 F2880 X11.57 Y5.04 E284.82657
G0 F6000 X11.57 Y5.75
G1 F2880 X5.75 Y11.57 E285.29407
G0 F6000 X6.46 Y11.57
G1 F2880 X11.57 Y6.46 E285.70482
G0 F6000 X11.57 Y7.16
G1 F2880 X7.16 Y11.57 E286.05884
G0 F6000 X7.87 Y11.57
G1 F2880 X11.57 Y7.87 E286.35611
G0 F6000 X11.57 Y8.58
G1 F2880 X8.58 Y11.57 E286.59664
G0 F6000 X9.29 Y11.57
G1 F2880 X11.57 Y9.29 E286.78035
G0 F6000 X11.57 Y9.99
G1 F2880 X9.99 Y11.57 E286.90731
G0 F6000 X10.70 Y11.57
G1 F2880 X11.57 Y10.70 E286.97754
G0 F6000 X11.57 Y11.41
G1 F2880 X11.41 Y11.57 E286.99102
;LAYER:4
G0 F6000 X11.75 Y11.75 Z1.50
;TYPE:WALL-INNER
G1 F3060 X-11.75 Y11.75 E288.32465
