M300
M206 X500
M107
M104 S220
G92 E
M642 W1
M130 T6 U1.3 V80
G1 X-98.0 Y-20.0 Z5.0 F3000
G1 Y-68.0 Z0.3
G1 X-98.0 Y0.0 F500 E20
G92 E
;Generated with Cura_SteamEngine DEV
;startCode
;Layer count: 75
;LAYER:0
M107
G0 F6000 X-3.57 Y-0.64 Z0.30
;TYPE:WALL-INNER
G1 F900 X-3.61 Y-1.16 E0.03740
G1 X-4.46 Y-5.47 E0.35300
G1 X-4.54 Y-5.86 E0.38187
G1 X-5.82 Y-9.14 E0.63471
G1 X-5.93 Y-9.41 E0.65577
G1 X-7.46 Y-12.53 E0.90539
G1 X-7.53 Y-12.67 E0.91647
G1 X-8.07 Y-14.81 E1.07531
G1 X-8.02 Y-16.88 E1.22400
G1 X-7.30 Y-18.96 E1.38224
G1 X-5.86 Y-21.02 E1.56236
G1 X-3.38 Y-23.44 E1.81139
G1 X-1.55 Y-25.31 E1.99927
G1 X-0.62 Y-27.13 E2.14633
G1 X-0.32 Y-29.15 E2.29300
G1 X-0.63 Y-31.29 E2.44796
G1 X-1.55 Y-32.81 E2.57555
G1 X-4.50 Y-36.07 E2.89112
G1 X-6.06 Y-38.07 E3.07342
G1 X-6.97 Y-40.29 E3.24596
G1 X-7.53 Y-43.49 E3.47914
G1 X-7.56 Y-43.66 E3.49206
G1 X-7.61 Y-45.49 E3.62372
G1 X-7.47 Y-46.12 E3.66980
G1 X0.51 Y-46.12 E4.24317
G1 X0.51 Y-21.68 E5.99877
G1 X6.41 Y-21.68 E6.42264
G1 X6.41 Y-46.12 E8.17824
G1 X26.45 Y-46.12 E9.61745
G1 X26.91 Y-44.41 E9.74483
G1 X26.88 Y-42.03 E9.91554
G1 X26.25 Y-39.67 E10.09104
G1 X24.97 Y-37.42 E10.27671
G1 X23.18 Y-35.44 E10.46889
G1 X20.19 Y-32.90 E10.75068
G1 X19.93 Y-32.67 E10.77564
G1 X18.60 Y-31.24 E10.91585
G1 X18.11 Y-30.12 E11.00332
G1 X18.11 Y-28.28 E11.13573
G1 X18.95 Y-26.51 E11.27650
G1 X20.48 Y-25.36 E11.41361
G1 X22.82 Y-24.67 E11.58942
G1 X25.98 Y-24.52 E11.81639
G1 X26.25 Y-24.51 E11.83616
G1 X29.62 Y-24.71 E12.07885
G1 X29.06 Y-22.46 E12.24565
G1 X27.59 Y-19.40 E12.48960
G1 X27.49 Y-19.20 E12.50512
G1 X25.69 Y-16.21 E12.75624
G1 X25.53 Y-15.94 E12.77874
G1 X24.50 Y-13.71 E12.95505
G1 X24.02 Y-11.21 E13.13800
G1 X24.30 Y-9.22 E13.28273
G1 X25.38 Y-7.42 E13.43343
G1 X27.06 Y-6.18 E13.58394
G1 X27.84 Y-5.87 E13.64407
G1 X29.92 Y-5.69 E13.79393
G1 X32.02 Y-6.39 E13.95292
G1 X33.59 Y-7.82 E14.10568
G1 X34.55 Y-9.90 E14.27015
G1 X34.95 Y-12.76 E14.47787
G1 X34.64 Y-16.36 E14.73712
G1 X34.36 Y-17.52 E14.82297
G1 X35.99 Y-16.99 E14.94609
G1 X38.61 Y-15.50 E15.16284
G1 X38.73 Y-15.43 E15.17295
G1 X41.18 Y-13.28 E15.40687
G1 X43.30 Y-10.49 E15.65826
G1 X44.84 Y-7.33 E15.91154
G1 X45.72 Y-4.01 E16.15772
G1 X45.76 Y-3.85 E16.16969
G1 X45.97 Y-0.24 E16.42961
G1 X45.92 Y0.52 E16.48454
G1 X45.25 Y4.15 E16.74975
G1 X43.98 Y7.48 E17.00560
G1 X43.91 Y7.65 E17.01890
G1 X42.02 Y10.74 E17.27916
G1 X41.91 Y10.93 E17.29477
G1 X41.22 Y11.79 E17.37415
G1 X38.51 Y14.42 E17.64509
G1 X35.54 Y16.34 E17.89893
G1 X35.39 Y16.43 E17.91192
G1 X32.51 Y17.60 E18.13550
G1 X32.35 Y17.66 E18.14772
G1 X30.70 Y18.04 E18.26886
G1 X28.06 Y18.21 E18.45941
G1 X25.10 Y17.73 E18.67452
G1 X22.00 Y16.52 E18.91384
G1 X21.84 Y16.45 E18.92658
G1 X19.33 Y14.94 E19.13657
G1 X19.22 Y14.87 E19.14582
G1 X17.43 Y13.19 E19.32260
G1 X16.10 Y11.09 E19.50082
G1 X15.30 Y8.65 E19.68563
G1 X14.99 Y5.79 E19.89197
G1 X15.25 Y2.88 E20.10186
G1 X15.26 Y2.74 E20.11239
G1 X16.32 Y-1.45 E20.42249
G1 X16.80 Y-3.85 E20.59867
G1 X16.66 Y-5.90 E20.74640
G1 X15.72 Y-7.89 E20.90457
G1 X14.12 Y-9.37 E21.06094
G1 X12.07 Y-10.10 E21.21714
G1 X9.69 Y-10.03 E21.38833
G1 X7.43 Y-9.20 E21.56152
G1 X5.85 Y-8.02 E21.70325
G1 X4.57 Y-6.10 E21.86909
G1 X4.45 Y0.74 E22.36049
G1 X3.60 Y10.32 E23.05158
G1 X2.93 Y19.83 E23.73662
G1 X2.57 Y25.25 E24.12649
G1 X2.55 Y25.54 E24.14737
G1 X2.04 Y27.97 E24.32622
G1 X1.25 Y29.53 E24.45197
G1 X0.43 Y30.23 E24.52928
G1 X-1.13 Y30.80 E24.64861
G1 X-0.53 Y33.27 E24.83087
G1 X0.64 Y34.59 E24.95753
G1 X2.50 Y35.31 E25.10095
G1 X4.62 Y35.18 E25.25370
G1 X6.45 Y34.18 E25.40339
G1 X7.73 Y32.66 E25.54629
G1 X7.87 Y32.41 E25.56649
G1 X8.72 Y30.18 E25.73792
G1 X8.85 Y27.63 E25.92185
G1 X8.18 Y24.67 E26.13960
G1 X7.68 Y23.49 E26.23162
G1 X9.13 Y25.22 E26.39372
G1 X10.24 Y27.54 E26.57843
G1 X10.74 Y30.10 E26.76598
G1 X10.69 Y32.88 E26.96531
G1 X10.69 Y33.01 E26.97444
G1 X9.99 Y36.33 E27.21844
G1 X9.96 Y36.51 E27.23150
G1 X8.81 Y39.39 E27.45447
G1 X8.75 Y39.53 E27.46491
G1 X7.13 Y42.00 E27.67732
G1 X5.28 Y43.75 E27.86027
G1 X2.85 Y45.17 E28.06270
G1 X0.11 Y46.00 E28.26795
G1 X-2.78 Y46.12 E28.47632
G1 X-5.38 Y45.57 E28.66692
G1 X-8.26 Y44.31 E28.89316
G1 X-8.39 Y44.25 E28.90348
G1 X-10.70 Y42.59 E29.10725
G1 X-12.21 Y40.88 E29.27144
G1 X-13.16 Y38.91 E29.42879
G1 X-13.56 Y36.63 E29.59529
G1 X-13.44 Y34.12 E29.77590
G1 X-12.67 Y31.08 E30.00078
G1 X-12.63 Y30.94 E30.01132
G1 X-11.27 Y28.10 E30.23780
G1 X-8.86 Y24.48 E30.54995
G1 X-11.64 Y21.96 E30.81994
G1 X-6.36 Y21.96 E31.19926
G1 X-6.71 Y17.98 E31.48652
G1 X-6.40 Y15.64 E31.65586
G1 X-5.65 Y13.95 E31.78914
G1 X-4.72 Y12.85 E31.89252
G1 X-4.14 Y12.53 E31.94014
G1 X-2.70 Y12.51 E32.04403
G1 X-3.08 Y6.07 E32.50721
G1 X-3.57 Y-0.64 E32.99071
G0 F6000 X-4.21 Y-1.08
;TYPE:WALL-OUTER
G1 F900 X-5.12 Y-5.69 E33.32867
G1 X-6.48 Y-9.17 E33.59694
G1 X-8.10 Y-12.46 E33.86075
G1 X-8.67 Y-14.74 E34.02966
G1 X-8.61 Y-16.99 E34.19078
G1 X-7.84 Y-19.24 E34.36208
G1 X-6.25 Y-21.50 E34.56008
G1 X-3.80 Y-23.86 E34.80492
G1 X-2.05 Y-25.67 E34.98563
G1 X-1.20 Y-27.32 E35.11907
G1 X-0.93 Y-29.16 E35.25238
G1 X-1.21 Y-31.08 E35.39225
G1 X-2.04 Y-32.45 E35.50695
G1 X-4.96 Y-35.68 E35.82023
G1 X-6.61 Y-37.80 E36.01337
G1 X-7.55 Y-40.12 E36.19321
G1 X-8.12 Y-43.38 E36.43091
G1 X-8.16 Y-43.60 E36.44683
G1 X-8.21 Y-45.56 E36.58733
G1 X-7.95 Y-46.72 E36.67314
G1 X1.11 Y-46.72 E37.32396
G1 X1.11 Y-22.28 E39.07956
G1 X5.81 Y-22.28 E39.41722
G1 X5.81 Y-46.72 E41.17282
G1 X26.91 Y-46.72 E42.68832
G1 X27.51 Y-44.48 E42.85452
G1 X27.48 Y-41.95 E43.03657
G1 X26.81 Y-39.44 E43.22344
G1 X25.46 Y-37.07 E43.41899
G1 X23.60 Y-35.00 E43.61910
G1 X20.35 Y-32.24 E43.92581
G1 X19.11 Y-30.91 E44.05621
G1 X18.71 Y-30.00 E44.12753
G1 X18.71 Y-28.42 E44.24111
G1 X19.43 Y-26.90 E44.36158
G1 X20.75 Y-25.90 E44.48032
G1 X22.92 Y-25.26 E44.64301
G1 X26.25 Y-25.11 E44.88235
G1 X30.41 Y-25.36 E45.18139
G1 X29.68 Y-22.46 E45.39621
G1 X29.62 Y-22.25 E45.41183
G1 X28.02 Y-18.93 E45.67670
G1 X26.06 Y-15.66 E45.95055
G1 X25.07 Y-13.53 E46.11920
G1 X24.62 Y-11.20 E46.28971
G1 X24.87 Y-9.42 E46.41848
G1 X25.83 Y-7.83 E46.55190
G1 X27.36 Y-6.71 E46.68813
G1 X27.98 Y-6.46 E46.73636
G1 X29.85 Y-6.30 E46.87108
G1 X31.71 Y-6.92 E47.01189
G1 X33.10 Y-8.18 E47.14690
G1 X33.97 Y-10.07 E47.29623
G1 X34.34 Y-12.78 E47.49265
G1 X34.05 Y-16.26 E47.74382
G1 X33.52 Y-18.42 E47.90338
G1 X36.23 Y-17.54 E48.10845
G1 X39.08 Y-15.92 E48.34377
G1 X41.62 Y-13.69 E48.58623
G1 X43.81 Y-10.81 E48.84660
G1 X45.41 Y-7.54 E49.10833
G1 X46.36 Y-3.95 E49.37489
G1 X46.57 Y-0.23 E49.64208
G1 X46.52 Y0.59 E49.70183
G1 X45.83 Y4.32 E49.97399
G1 X44.45 Y7.92 E50.25069
G1 X42.39 Y11.28 E50.53397
G1 X41.66 Y12.19 E50.61810
G1 X38.89 Y14.89 E50.89595
G1 X35.67 Y16.97 E51.17144
G1 X32.73 Y18.15 E51.39886
G1 X32.53 Y18.23 E51.41437
G1 X30.79 Y18.64 E51.54266
G1 X27.93 Y18.82 E51.74839
G1 X24.94 Y18.31 E51.96669
G1 X21.57 Y16.99 E52.22631
G1 X18.86 Y15.35 E52.45409
G1 X16.96 Y13.58 E52.64083
G1 X15.55 Y11.35 E52.83009
G1 X14.71 Y8.77 E53.02481
G1 X14.38 Y5.81 E53.23931
G1 X14.67 Y2.63 E53.46824
G1 X15.73 Y-1.58 E53.78028
G1 X16.19 Y-3.89 E53.94971
G1 X16.07 Y-5.75 E54.08354
G1 X15.23 Y-7.53 E54.22519
G1 X13.81 Y-8.85 E54.36433
G1 X11.98 Y-9.50 E54.50360
G1 X9.81 Y-9.44 E54.65970
G1 X7.72 Y-8.67 E54.81957
G1 X6.29 Y-7.60 E54.94765
G1 X5.16 Y-5.92 E55.09341
G1 X5.05 Y0.76 E55.57288
G1 X4.20 Y10.37 E56.26584
G1 X3.53 Y19.87 E56.95045
G1 X3.15 Y25.61 E57.36386
G1 X2.61 Y28.17 E57.55175
G1 X1.73 Y29.91 E57.69190
G1 X0.74 Y30.76 E57.78536
G1 X-0.42 Y31.18 E57.87407
G1 X0.02 Y32.98 E58.00711
G1 X0.99 Y34.08 E58.11265
G1 X2.60 Y34.71 E58.23619
G1 X4.45 Y34.59 E58.36980
G1 X6.06 Y33.71 E58.50177
G1 X7.24 Y32.31 E58.63304
G1 X7.33 Y32.15 E58.64605
G1 X8.13 Y30.06 E58.80694
G1 X8.25 Y27.68 E58.97806
G1 X7.61 Y24.86 E59.18616
G1 X6.18 Y21.45 E59.45118
G1 X7.71 Y22.58 E59.58750
G1 X9.64 Y24.89 E59.80387
G1 X10.85 Y27.43 E60.00573
G1 X11.36 Y30.15 E60.20514
G1 X11.29 Y33.07 E60.41492
G1 X10.53 Y36.68 E60.67964
G1 X9.29 Y39.81 E60.92137
G1 X7.59 Y42.38 E61.14306
G1 X5.58 Y44.29 E61.34258
G1 X3.00 Y45.78 E61.55634
G1 X0.12 Y46.62 E61.77186
G1 X-2.83 Y46.72 E61.98405
G1 X-5.67 Y46.13 E62.19234
G1 X-8.51 Y44.85 E62.41593
G1 X-8.69 Y44.77 E62.43027
G1 X-11.11 Y43.04 E62.64342
G1 X-12.72 Y41.22 E62.81834
G1 X-13.74 Y39.09 E62.98768
G1 X-14.16 Y36.66 E63.16483
G1 X-14.03 Y33.92 E63.36241
G1 X-13.20 Y30.73 E63.59905
G1 X-11.79 Y27.80 E63.83268
G1 X-9.64 Y24.58 E64.11060
G1 X-13.20 Y21.36 E64.45531
G1 X-7.02 Y21.36 E64.89951
G1 X-7.32 Y17.97 E65.14451
G1 X-6.98 Y15.48 E65.32451
G1 X-6.17 Y13.62 E65.47026
G1 X-5.11 Y12.37 E65.58803
G1 X-4.30 Y11.93 E65.65426
G1 X-3.33 Y11.92 E65.72381
G1 X-3.68 Y6.11 E66.14151
G1 X-4.21 Y-1.08 E66.65944
G0 F6000 X-3.42 Y-1.30
;TYPE:FILL
G1 F900 X3.78 Y5.90 E67.39112
G0 F6000 X3.85 Y5.12
G1 F900 X-3.63 Y-2.36 E68.15103
G0 F6000 X-3.84 Y-3.42
G1 F900 X3.92 Y4.34 E68.93919
G0 F6000 X3.98 Y3.56
G1 F900 X-4.05 Y-4.48 E69.75565
G0 F6000 X-4.26 Y-5.53
G1 F900 X4.05 Y2.78 E70.60035
G0 F6000 X4.12 Y2.00
G1 F900 X-4.68 Y-6.80 E71.49504
G0 F6000 X-5.23 Y-8.20
G1 F900 X4.19 Y1.22 E72.45200
G0 F6000 X4.24 Y0.42
G1 F900 X-5.79 Y-9.61 E73.47115
G0 F6000 X-6.62 Y-11.28
G1 F900 X4.25 Y-0.41 E74.57579
G0 F6000 X4.27 Y-1.24
G1 F900 X-7.37 Y-12.89 E75.75877
G0 F6000 X-7.65 Y-14.02
G1 F900 X4.29 Y-2.08 E76.97162
G0 F6000 X4.30 Y-2.91
G1 F900 X-7.85 Y-15.06 E78.20611
G0 F6000 X-7.83 Y-15.89
G1 F900 X4.32 Y-3.75 E79.43999
G0 F6000 X4.33 Y-4.58
G1 F900 X-7.81 Y-16.72 E80.67331
G0 F6000 X-7.62 Y-17.38
G1 F900 X4.34 Y-5.41 E81.88910
G0 F6000 X4.39 Y-6.21
G1 F900 X-7.40 Y-18.01 E83.08747
G0 F6000 X-7.19 Y-18.64
G1 F900 X4.73 Y-6.72 E84.29839
G0 F6000 X5.07 Y-7.23
G1 F900 X-6.88 Y-19.19 E85.51326
G0 F6000 X-6.53 Y-19.69
G1 F900 X5.41 Y-7.74 E86.72703
G0 F6000 X5.78 Y-8.22
G1 F900 X-6.18 Y-20.18 E87.94221
G0 F6000 X-5.83 Y-20.68
G1 F900 X6.26 Y-8.59 E89.17111
G0 F6000 X6.75 Y-8.95
G1 F900 X-5.43 Y-21.13 E90.40875
G0 F6000 X-5.01 Y-21.55
G1 F900 X7.23 Y-9.31 E91.65208
G0 F6000 X7.82 Y-9.57
G1 F900 X-4.58 Y-21.97 E92.91207
G0 F6000 X-4.15 Y-22.39
G1 F900 X8.44 Y-9.80 E94.19141
G0 F6000 X9.06 Y-10.03
G1 F900 X-3.72 Y-22.81 E95.49031
G0 F6000 X-3.29 Y-23.23
G1 F900 X9.70 Y-10.24 E96.80979
G0 F6000 X10.52 Y-10.27
G1 F900 X-2.87 Y-23.66 E98.17046
G0 F6000 X-2.45 Y-24.09
G1 F900 X11.35 Y-10.29 E99.57249
G0 F6000 X12.21 Y-10.27
G1 F900 X1.01 Y-21.47 E100.71020
G0 F6000 X1.86 Y-21.47
G1 F900 X13.53 Y-9.81 E101.89531
G0 F6000 X16.41 Y-6.92
G1 F900 X37.90 Y14.56 E104.07788
G0 F6000 X38.41 Y14.22
G1 F900 X2.71 Y-21.47 E107.70438
G0 F6000 X3.56 Y-21.47
G1 F900 X38.84 Y13.80 E111.28847
G0 F6000 X39.27 Y13.39
G1 F900 X4.41 Y-21.47 E114.83008
G0 F6000 X5.26 Y-21.47
G1 F900 X39.70 Y12.97 E118.32928
G0 F6000 X40.13 Y12.55
G1 F900 X6.11 Y-21.47 E121.78601
G0 F6000 X6.62 Y-21.80
G1 F900 X40.56 Y12.13 E125.23370
G0 F6000 X40.99 Y11.71
G1 F900 X6.62 Y-22.65 E128.72517
G0 F6000 X6.62 Y-23.50
G1 F900 X41.38 Y11.25 E132.25592
G0 F6000 X41.75 Y10.78
G1 F900 X6.62 Y-24.35 E135.82471
G0 F6000 X6.62 Y-25.20
G1 F900 X42.07 Y10.25 E139.42622
G0 F6000 X42.40 Y9.73
G1 F900 X25.88 Y-6.79 E141.10409
G0 F6000 X24.96 Y-7.71
G1 F900 X6.62 Y-26.04 E142.96682
G0 F6000 X6.62 Y-26.89
G1 F900 X24.05 Y-9.47 E144.73704
G0 F6000 X23.91 Y-10.46
G1 F900 X6.62 Y-27.74 E146.49330
G0 F6000 X6.62 Y-28.59
G1 F900 X23.83 Y-11.38 E148.24173
G0 F6000 X23.97 Y-12.09
G1 F900 X6.62 Y-29.44 E150.00403
G0 F6000 X6.62 Y-30.29
G1 F900 X24.11 Y-12.80 E151.78014
G0 F6000 X24.24 Y-13.52
G1 F900 X6.62 Y-31.14 E153.57013
G0 F6000 X6.62 Y-31.98
G1 F900 X24.46 Y-14.14 E155.38257
G0 F6000 X24.73 Y-14.72
G1 F900 X6.62 Y-32.83 E157.22229
G0 F6000 X6.62 Y-33.68
G1 F900 X25.00 Y-15.30 E159.08928
G0 F6000 X25.27 Y-15.88
G1 F900 X6.62 Y-34.53 E160.98361
G0 F6000 X6.62 Y-35.38
G1 F900 X25.57 Y-16.43 E162.90893
G0 F6000 X25.89 Y-16.96
G1 F900 X6.62 Y-36.23 E164.86665
G0 F6000 X6.62 Y-37.08
G1 F900 X26.21 Y-17.49 E166.85684
G0 F6000 X26.53 Y-18.02
G1 F900 X6.62 Y-37.92 E168.87939
G0 F6000 X6.62 Y-38.77
G1 F900 X18.58 Y-26.82 E170.09376
G0 F6000 X19.75 Y-25.65
G1 F900 X26.85 Y-18.55 E170.81532
G0 F6000 X27.17 Y-19.07
G1 F900 X21.37 Y-24.88 E171.40475
G0 F6000 X22.57 Y-24.52
G1 F900 X27.46 Y-19.63 E171.90173
G0 F6000 X27.74 Y-20.20
G1 F900 X23.52 Y-24.42 E172.33068
G0 F6000 X24.41 Y-24.38
G1 F900 X28.01 Y-20.77 E172.69725
G0 F6000 X28.29 Y-21.35
G1 F900 X25.30 Y-24.34 E173.00149
G0 F6000 X26.18 Y-24.30
G1 F900 X28.56 Y-21.92 E173.24335
G0 F6000 X28.84 Y-22.50
G1 F900 X26.99 Y-24.34 E173.43121
G0 F6000 X27.79 Y-24.39
G1 F900 X29.02 Y-23.17 E173.55567
G0 F6000 X29.19 Y-23.84
G1 F900 X28.59 Y-24.44 E173.61612
G0 F6000 X24.59 Y-13.68
G0 X24.12 Y-11.21
G0 X24.40 Y-9.26
G0 X25.46 Y-7.49
G0 X27.87 Y-5.97
G0 X29.91 Y-5.79
G0 X31.96 Y-6.48
G0 X33.50 Y-7.88
G0 X34.46 Y-9.93
G0 X34.84 Y-12.76
G0 X34.54 Y-16.34
G0 X35.14 Y-17.04
G1 F900 X44.37 Y-7.81 E174.55399
G0 F6000 X44.85 Y-6.49
G1 F900 X34.82 Y-16.52 E175.57273
G0 F6000 X34.92 Y-15.57
G1 F900 X45.15 Y-5.33 E176.61235
G0 F6000 X45.46 Y-4.18
G1 F900 X35.00 Y-14.64 E177.67518
G0 F6000 X35.07 Y-13.71
G1 F900 X45.59 Y-3.20 E178.74325
G0 F6000 X45.64 Y-2.30
G1 F900 X35.15 Y-12.79 E179.80873
G0 F6000 X35.06 Y-12.04
G1 F900 X45.69 Y-1.40 E180.88914
G0 F6000 X45.74 Y-0.50
G1 F900 X34.95 Y-11.29 E181.98510
G0 F6000 X34.85 Y-10.54
G1 F900 X45.72 Y0.32 E183.08908
G0 F6000 X45.61 Y1.06
G1 F900 X34.74 Y-9.80 E184.19281
G0 F6000 X34.47 Y-9.23
G1 F900 X45.47 Y1.77 E185.31056
G0 F6000 X45.34 Y2.49
G1 F900 X34.20 Y-8.65 E186.44228
G0 F6000 X33.94 Y-8.07
G1 F900 X45.21 Y3.21 E187.58797
G0 F6000 X45.08 Y3.93
G1 F900 X33.60 Y-7.55 E188.75383
G0 F6000 X33.16 Y-7.14
G1 F900 X44.87 Y4.57 E189.94341
G0 F6000 X44.64 Y5.18
G1 F900 X32.72 Y-6.74 E191.15427
G0 F6000 X32.27 Y-6.33
G1 F900 X44.40 Y5.79 E192.38632
G0 F6000 X44.16 Y6.41
G1 F900 X31.70 Y-6.06 E193.65261
G0 F6000 X31.06 Y-5.85
G1 F900 X43.93 Y7.02 E194.95985
G0 F6000 X43.69 Y7.62
G1 F900 X30.43 Y-5.63 E196.30676
G0 F6000 X29.72 Y-5.49
G1 F900 X43.36 Y8.15 E197.69288
G0 F6000 X43.04 Y8.67
G1 F900 X28.79 Y-5.58 E199.14078
G0 F6000 X27.86 Y-5.66
G1 F900 X42.72 Y9.20 E200.65050
G0 F6000 X37.38 Y14.89
G1 F900 X16.89 Y-5.59 E202.73203
G0 F6000 X16.95 Y-4.68
G1 F900 X36.87 Y15.23 E204.75523
G0 F6000 X36.35 Y15.56
G1 F900 X17.00 Y-3.79 E206.72160
G0 F6000 X16.86 Y-3.08
G1 F900 X35.84 Y15.89 E208.64996
G0 F6000 X35.32 Y16.23
G1 F900 X16.71 Y-2.38 E210.54027
G0 F6000 X16.57 Y-1.67
G1 F900 X34.72 Y16.48 E212.38395
G0 F6000 X34.12 Y16.72
G1 F900 X16.41 Y-0.98 E214.18232
G0 F6000 X16.24 Y-0.30
G1 F900 X33.51 Y16.96 E215.93659
G0 F6000 X32.91 Y17.21
G1 F900 X16.07 Y0.37 E217.64692
G0 F6000 X15.90 Y1.05
G1 F900 X32.30 Y17.45 E219.31311
G0 F6000 X31.61 Y17.61
G1 F900 X15.73 Y1.73 E220.92712
G0 F6000 X15.56 Y2.40
G1 F900 X30.93 Y17.77 E222.48871
G0 F6000 X30.17 Y17.87
G1 F900 X15.43 Y3.13 E223.98599
G0 F6000 X15.36 Y3.91
G1 F900 X29.37 Y17.92 E225.40915
G0 F6000 X28.57 Y17.97
G1 F900 X15.29 Y4.69 E226.75824
G0 F6000 X15.22 Y5.47
G1 F900 X27.70 Y17.94 E228.02519
G0 F6000 X26.68 Y17.77
G1 F900 X15.26 Y6.35 E229.18581
G0 F6000 X15.36 Y7.30
G1 F900 X25.67 Y17.61 E230.23270
G0 F6000 X24.46 Y17.25
G1 F900 X15.47 Y8.25 E231.14694
G0 F6000 X15.77 Y9.40
G1 F900 X23.07 Y16.71 E231.88913
G0 F6000 X21.55 Y16.03
G1 F900 X16.18 Y10.67 E232.43421
G0 F6000 X17.35 Y12.69
G1 F900 X19.40 Y14.74 E232.64249
G0 F6000 X16.56 Y-5.88
G0 X15.63 Y-7.83
G0 X14.07 Y-9.28
G0 X12.06 Y-10.00
G0 X9.71 Y-9.93
G0 X7.48 Y-9.11
G0 X5.93 Y-7.95
G0 X4.67 Y-6.07
G0 X-0.95 Y30.90
G0 X-0.43 Y33.22
G0 X0.70 Y34.50
G0 X2.52 Y35.21
G0 X4.59 Y35.08
G0 X6.38 Y34.10
G0 X7.78 Y32.37
G0 X8.62 Y30.16
G0 X8.75 Y27.64
G0 X8.08 Y24.70
G0 X9.10 Y25.64
G1 F900 X8.47 Y25.02 E232.70589
G0 F6000 X8.72 Y26.12
G1 F900 X9.87 Y27.27 E232.82273
G0 F6000 X8.97 Y27.21
G1 F900 X10.20 Y28.44 E232.94765
G0 F6000 X10.41 Y29.50
G1 F900 X9.03 Y28.13 E233.08740
G0 F6000 X8.99 Y28.93
G1 F900 X10.53 Y30.47 E233.24290
G0 F6000 X10.51 Y31.30
G1 F900 X8.95 Y29.74 E233.40099
G0 F6000 X8.84 Y30.47
G1 F900 X10.49 Y32.13 E233.56944
G0 F6000 X10.48 Y32.96
G1 F900 X8.60 Y31.09 E233.76014
G0 F6000 X8.37 Y31.70
G1 F900 X10.33 Y33.67 E233.95999
G0 F6000 X10.19 Y34.37
